X: 119
T:Abbey Leix
M:4/4
L:1/8
S:Brendan McGlinchey
C:Brendan McGlinchey
K:AMin
[| D2 ED CA, (3A,A,A, | FEFG ABcA | d2 ed cAdc | AcGE EDDC|
D2 ED CA, (3A,A,A, |FEFG ABcA | d2 ed cAdc | AcGE ED D2 |]
K:D
[| d2 fd adfd | vg2 u(fg e)v(ABc |d)u(DcD BDAF | G)EFD EA,A,A|
d2 fd adfd | vg2 u(fg e)vABc | du(DcD BDAF | G)BAG FD D2 |]
